X: 4
T: Paddy McFadden's
T: Cis N Liathin
S: &quot;Breandan Breathnach: Ceol Rince na hEireann I&quot;
L: 1/8
M: 6/8
R: single jig / slide
K: Ador
|: g/f/ |\
e2 A ABA | e2 f g2 f | e2 A ABA | G2 A Bcd |
e2 A ABA | e2 f g2 f | efe e2 d | B2 A A2- :|
|: A |\
e2 a a2 g | e2 f g2 f | e2 a a2 g | e2 d Bcd |
e2 a a2 g | e2 f g2 f | efe e2 d | B2 A A2- :|
